X: 1777
T: Orley Benson's 3rd Figure, 1st Set
B: australian traditional tunes wiki
M:2/4
L:1/8
R: Set Tune
Q: 1/4=100
K:C
V:1 
"C"c3c|B2AB|cG EG|C2DE|"F"F3E|FG BA|"G"G3A|"G7"G2CE|
"C"G3A|GE DC|EG AB|c2BA|"C"G2B>A|"G7"GF DE|"C"C4-|C2z2||
% abcbook-tune_id 6342d53a704f0d9585b51b22


% abcbook-boost 0
% abcbook-tablature 
% abcbook-transpose 
% abcbook-lastupdated 1665324383252
% abcbook-soundfonts 
% abcbook-repeats 1
% NFF Book 2014

